X:2
T:Mr. O'Connor (jig part)
C:Turlough Carolan
B:Carolan, by Donal O'Sullivan
M:6/8
L:1/8
N:marked "Vivace ma non troppo" (lively, but not too much)
Q:100
K:Gm
GBd dBG|A/G/A/B/c BFD|E/D/E/F/G FB,F|G3 A3|
B/c/de dBd|cAc fAF|B>cB AFD|G3 G3||
Bdg Acf|GBd cAF|G2 G FDF|FDF B2 c|
dB/c/d cA/B/c|dB/c/d ec/d/e|{e}d2 c {d}cB/A/d|
{c}BA/G/c ~A2 G/F/|GAB ABF|GAB AcG|
DCD B,BA|G3 G3||
"edited second part"
Bdg Acf|GBd cAF|G2 G FDF|FDF B2 c|
dB/c/d cA/B/c|dB/c/d ec/d/e|edc d/c/B/A/d|
c/B/A/G/c ~A2 G/F/|GAB ABF|GAB AcG|
DCD B,BA|G3 G3||

